!!!OTL: Der Falschen Lohn.
!!!OTL-incipit: EIN MAEDCHEN VON ACHTZEHN JAHREN
!!!COM: Volksweise
!!!ARE: Europa, Mitteleuropa, Deutschland
!!!SCT: F0864
!!!TXL: @@DE
!!!YEM: Copyright 1995, estate of Helmut Schaffrath.
**kern	**text
*ICvox	*
*clefG2	*
*M4/4	*
*met(c)	*
*k[f#]	*
*G:	*
!LO:TX:a:t=Bänkelsängerernſt.	!
{4d	1._Ein
=1	=1
4g	Mädchen
8b/	.
8b/	von
4b/	achtʒehn
4dd/	.
=2	=2
(>4b/	Jah-
4dd/)	.
4b/}	-ren,
{4dd/	ʒwei
=3	=3
4.dd/	Knaben
8cc/	.
4cc/	lieb-
4b/	-ten
=4	=4
2a	ſie;
4r}	.
{4b/	der
=5	=5
4cc/	Ei-
4ee/	-ne
4cc/	war
4a	ein
=6	=6
(>4b/	Schiffsknecht,
4dd/)	.
4b/}	.
{4g	der
=7	=7
4a	An-
8cc/	-dre
8cc/	des
4a	Hauptmanns
4f#	.
=8	=8
4ee	Sohn
4dd	u.
4dd}	Sohn,
{4b	der
=9	=9
4cc	Ei-
4ee	-ne
4cc	war
4a	ein
=10	=10
(4b	Schiffsknecht,
4dd)	.
4b}	.
{4g	der
=11	=11
4a	An-
[>8a	-dre
8a]	des
4dd/	Hauptmanns
4dd/	.
=12	=12
2g	Sohn.
4r}	.
==	==
!!!AGN: erzaehlendes Volks - Lied, Ballade
!!!ONB: ESAC (Essen Associative Code) Database: FINK
!!!AMT: simple quadruple
!!!AIN: vox
!!!EED: Helmut Schaffrath
!!!EEV: 1.0
!!!RDF**kern: > = above
!!!GTL: Romanzen und Balladen
!!Text: Volkslied
!!!source: Musikalischer Hausschatz der Deutschen. Eine Sammlung von über 1000 Liedern und Gesängen mit Singstimmen und Klavierbegleitung. Leipzig, Litterarisches Verlags-Haus.
!!!page: 619
!!!URL-scan: https://www.digitale-sammlungen.de/en/view/bsb11144622?page=572
!!!ENC: Anna Maria Matuszewska
!!!EEV: 2024/08/07
*-	*-